packages/core/src/svgs/wallets/branded/trezor.svg

<svg width="24" height="24" viewBox="0 0 24 24" fill="none" xmlns="http://www.w3.org/2000/svg">
<path d="M16.958 6.64153C16.958 4.1046 14.7216 2 11.9992 2C9.27684 2 7.04042 4.10565 7.04042 6.64153V8.1251H5V18.7961L11.9992 22L19 18.794V8.17056H16.9596L16.958 6.64153ZM9.5684 6.64153C9.5684 5.44547 10.638 4.48831 11.9992 4.48831C13.3604 4.48831 14.43 5.44547 14.43 6.64153V8.1251H9.5684V6.64153ZM16.1799 17.0731L11.9992 18.9874L7.81847 17.0731V10.661H16.1799V17.0731Z" fill="black"/>
</svg>

<svg xmlns="http://www.w3.org/2000/svg" width="24" height="24" fill="none" viewBox="0 0 24 24">
    <path fill="#000" d="M16.958 6.642C16.958 4.105 14.722 2 11.999 2S7.04 4.106 7.04 6.642v1.483H5v10.671L12 22l7-3.206V8.171h-2.04zm-7.39 0c0-1.197 1.07-2.154 2.431-2.154s2.431.957 2.431 2.154v1.483H9.568zm6.612 10.431L12 18.987l-4.182-1.914v-6.412h8.362z"/>
</svg>
